X:405
T: Daisy Fields
S: "Ceol Rince na hEireann" 1/171
Z: B.Black
L: 1/8
M: 4/4
R: reel
K: D
F3E DEFD|EA, (3A,A,A, EA, (3A,A,A,|F3E DEFA|(3Bcd ec dcBA|
F3E DEFD|EA, (3A,A,A, EA, (3A,A,A,|F3E DEFA|(3Bcd ec d2||
Ad|fddc dfaf|edcd efge|fddc dfaf|gbeg fddA|
fddc dfaf|edcd efge|dfaf gbag|(3fga ec dcBA||
